X: 100
T:Difyrrwch Bleddyn ap Cynfyn
T:Bleddyn ap Cynfyn's Delight
M:6/8
L:1/8
Q:130
S:Cadw Twmpath Collection
R:Jig
A:Wales
Z:brian_martin12345@yahoo.com
K:Em
B|e2B Bcd|c2A ABc|B2Bc2B|"         Fine"E3-E2:||!
B|e2^de2g|f2ag2f|e^def2d|"      D.C."B3-B2||
